src/main/resources/icons/OsmorcIdeaIcons/icons/osgi.svg

<svg xmlns="http://www.w3.org/2000/svg" width="16" height="16" viewBox="0 0 16 16">
  <g fill="none" fill-rule="evenodd">
    <rect width="16" height="10" y="3" fill="#F08B22" fill-rule="nonzero"/>
    <path fill="#231F20" fill-opacity=".7" d="M2.71205774,10.4816 C1.24325774,10.4816 0.189257742,9.3868 0.189257742,8.0336 L0.189257742,8.02 C0.189257742,6.6668 1.25685774,5.5584 2.72565774,5.5584 C4.19445774,5.5584 5.24845774,6.6532 5.24845774,8.0064 L5.24845774,8.02 C5.24845774,9.3732 4.18085774,10.4816 2.71205774,10.4816 Z M2.72565774,9.516 C3.56885774,9.516 4.15365774,8.8496 4.15365774,8.0336 L4.15365774,8.02 C4.15365774,7.204 3.55525774,6.524 2.71205774,6.524 C1.86885774,6.524 1.28405774,7.1904 1.28405774,8.0064 L1.28405774,8.02 C1.28405774,8.836 1.88245774,9.516 2.72565774,9.516 Z M7.35354331,10.468 C6.63274331,10.468 5.90514331,10.2164 5.33394331,9.7064 L5.95274331,8.9652 C6.38114331,9.3188 6.82994331,9.5432 7.37394331,9.5432 C7.80234331,9.5432 8.06074331,9.3732 8.06074331,9.0944 L8.06074331,9.0808 C8.06074331,8.8156 7.89754331,8.6796 7.10194331,8.4756 C6.14314331,8.2308 5.52434331,7.9656 5.52434331,7.0204 L5.52434331,7.0068 C5.52434331,6.1432 6.21794331,5.572 7.19034331,5.572 C7.88394331,5.572 8.47554331,5.7896 8.95834331,6.1772 L8.41434331,6.966 C7.99274331,6.6736 7.57794331,6.4968 7.17674331,6.4968 C6.77554331,6.4968 6.56474331,6.6804 6.56474331,6.9116 L6.56474331,6.9252 C6.56474331,7.238 6.76874331,7.34 7.59154331,7.5508 C8.55714331,7.8024 9.10114331,8.1492 9.10114331,8.9788 L9.10114331,8.9924 C9.10114331,9.9376 8.38034331,10.468 7.35354331,10.468 Z M11.8182289,10.4816 C10.3358289,10.4816 9.31582887,9.4412 9.31582887,8.0336 L9.31582887,8.02 C9.31582887,6.6668 10.3698289,5.5584 11.8114289,5.5584 C12.6682289,5.5584 13.1850289,5.7896 13.6814289,6.2112 L13.0218289,7.0068 C12.6546289,6.7008 12.3282289,6.524 11.7774289,6.524 C11.0158289,6.524 10.4106289,7.1972 10.4106289,8.0064 L10.4106289,8.02 C10.4106289,8.8904 11.0090289,9.5296 11.8522289,9.5296 C12.2330289,9.5296 12.5730289,9.4344 12.8382289,9.244 L12.8382289,8.564 L11.7842289,8.564 L11.7842289,7.6596 L13.8514289,7.6596 L13.8514289,9.7268 C13.3618289,10.1416 12.6886289,10.4816 11.8182289,10.4816 Z M14.4197144,10.4 L14.4197144,5.64 L15.4669144,5.64 L15.4669144,10.4 L14.4197144,10.4 Z"/>
  </g>
</svg>

<svg xmlns="http://www.w3.org/2000/svg" width="16" height="16" viewBox="0 0 16 16"><rect id="frame" width="16" height="16" fill="none"/><g fill="none" fill-rule="evenodd"><path fill="#F08B22" fill-rule="nonzero" d="M0 3h16v10H0z"/><path fill="#231F20" fill-opacity=".7" d="M2.712 10.482C1.243 10.482.19 9.387.19 8.034V8.02c0-1.353 1.068-2.462 2.537-2.462 1.468 0 2.522 1.095 2.522 2.448v.014c0 1.353-1.067 2.462-2.536 2.462zm.014-.966c.843 0 1.428-.666 1.428-1.482V8.02c0-.816-.599-1.496-1.442-1.496s-1.428.666-1.428 1.482v.014c0 .816.598 1.496 1.442 1.496zm4.628.952c-.721 0-1.449-.252-2.02-.762l.619-.74c.428.353.877.577 1.42.577.43 0 .688-.17.688-.449v-.013c0-.265-.163-.401-.96-.605-.958-.245-1.577-.51-1.577-1.456v-.013c0-.864.694-1.435 1.666-1.435.694 0 1.286.218 1.768.605l-.544.789c-.421-.292-.836-.47-1.237-.47-.401 0-.612.184-.612.416v.013c0 .313.204.415 1.027.626.965.251 1.51.598 1.51 1.428v.013c0 .946-.722 1.476-1.748 1.476zm4.464.014c-1.482 0-2.502-1.04-2.502-2.448V8.02c0-1.353 1.054-2.462 2.495-2.462.857 0 1.374.232 1.87.653l-.66.796c-.366-.306-.693-.483-1.244-.483-.761 0-1.366.673-1.366 1.482v.014c0 .87.598 1.51 1.441 1.51.381 0 .721-.096.986-.286v-.68h-1.054V7.66h2.067v2.067a3.09 3.09 0 0 1-2.033.755zm2.602-.082V5.64h1.047v4.76H14.42z"/></g></svg>
